src/icons/main-more.svg

<svg enable-background="new 0 0 13 3" viewBox="0 0 13 3" xmlns="http://www.w3.org/2000/svg"><g fill="#4d5969"><path d="m1.5 0c.8 0 1.5.7 1.5 1.5s-.7 1.5-1.5 1.5-1.5-.7-1.5-1.5.7-1.5 1.5-1.5"/><path d="m11.5 0c.8 0 1.5.7 1.5 1.5s-.7 1.5-1.5 1.5-1.5-.7-1.5-1.5.7-1.5 1.5-1.5"/><path d="m6.5 0c.8 0 1.5.7 1.5 1.5s-.7 1.5-1.5 1.5c-.6 0-1.1-.5-1.5-1.5.4-1 .9-1.5 1.5-1.5"/></g></svg>

<svg viewBox="0 0 13 3" xmlns="http://www.w3.org/2000/svg"><g fill="#4d5969"><path d="M1.5 0C2.3 0 3 .7 3 1.5S2.3 3 1.5 3 0 2.3 0 1.5.7 0 1.5 0M11.5 0c.8 0 1.5.7 1.5 1.5S12.3 3 11.5 3 10 2.3 10 1.5 10.7 0 11.5 0M6.5 0C7.3 0 8 .7 8 1.5S7.3 3 6.5 3C5.9 3 5.4 2.5 5 1.5 5.4.5 5.9 0 6.5 0"/></g></svg>
